X:226
T:Tuttles Reel
R:reel
M:4/4
L:1/8
K:Ddor
G, | A,DDE FEFG | AcGc Ad dG, | A,DDE F2Ad | cAGE FDDG, |
A,DDE FEFG | AcGc Adde | fdec dcAB | cAGE FDD :: A |
cddA c2cA | cddA cAGA | ccdA cAGD | EEcE  EDDA |
cddA c2cA | cddA c2de | fdec dcAB | cAGE FDD :|
